X:24
T:Fortune Teller. THO5.024, The
M:2/4
L:1/8
B:Thompson's Complete Collection of 200 Favourite Dances Vol.5
F:https://www.libraryofdance.org/manuals/1780c-Thompson-Compleat-5.pdf
Z:vmp. Peter Dunk 2024
Q:1/4=130
K:G
G2 Bc|d2 BG|e2 cA|FA D2|
G2Bc|d2 BG|ec AF|G2G2:|
|:b/g/d/B/ Gb|a/f/d/A/ Fa|g/e/B/G/ Eg|f/d/A/F/ D2|G2 Bc |
d2 BG|e2 cA|FA D2|G2 Bc|d2 BG|ec AF|G2G2:|
W:
W:Hands 3 round with the 2nd Lady ./.
W:The same with the 2nd Gent ./:
W:Cross over two Couples, lead up to the top and cast off :/.
W:Hands four round at bottom, Right and Left at top :/:

